src/assets/icons/life-recommend.svg

<svg width="109" height="109" viewBox="0 0 109 109" fill="none" xmlns="http://www.w3.org/2000/svg">
<path d="M40.263 56.09C39.669 56.09 39.129 55.982 38.643 55.766C38.157 55.55 37.725 55.28 37.401 54.902C37.077 54.524 36.807 54.092 36.618 53.606C36.429 53.12 36.348 52.607 36.348 52.04C36.348 51.5 36.429 50.96 36.618 50.447C36.78 49.961 37.05 49.502 37.374 49.124C37.698 48.746 38.13 48.449 38.616 48.233C39.102 48.017 39.642 47.882 40.263 47.882C40.857 47.882 41.397 48.017 41.883 48.233C42.369 48.449 42.774 48.746 43.125 49.124C43.449 49.502 43.719 49.961 43.908 50.447C44.07 50.96 44.178 51.5 44.178 52.04C44.178 52.607 44.07 53.12 43.881 53.606C43.692 54.092 43.422 54.524 43.098 54.902C42.774 55.28 42.369 55.55 41.883 55.766C41.397 55.982 40.857 56.09 40.263 56.09ZM41.64 57.872L37.563 64.379L39.399 65.567L41.532 62.03L43.449 58.79L44.934 56.306L45.69 54.983C45.906 54.578 46.068 54.119 46.23 53.606C46.365 53.093 46.446 52.553 46.446 51.959C46.446 51.203 46.311 50.474 46.041 49.718C45.771 48.989 45.366 48.341 44.826 47.747C44.286 47.153 43.638 46.694 42.882 46.316C42.126 45.965 41.235 45.776 40.263 45.776C39.264 45.776 38.373 45.965 37.617 46.316C36.861 46.694 36.213 47.153 35.673 47.747C35.133 48.341 34.755 49.016 34.485 49.772C34.215 50.528 34.08 51.284 34.08 52.04C34.08 52.823 34.215 53.579 34.485 54.308C34.755 55.064 35.16 55.712 35.7 56.279C36.213 56.873 36.834 57.332 37.59 57.683C38.346 58.034 39.183 58.196 40.155 58.196C40.614 58.196 40.938 58.169 41.154 58.088C41.37 58.034 41.532 57.953 41.64 57.872ZM61.8628 58.898C61.8628 57.872 61.6738 56.954 61.3498 56.144C61.0258 55.361 60.5668 54.713 60.0268 54.173C59.4598 53.66 58.8118 53.282 58.0828 53.012C57.3538 52.742 56.5978 52.607 55.8418 52.607C55.2748 52.607 54.6808 52.688 54.0598 52.823C53.4388 52.958 52.8988 53.147 52.4128 53.39V48.206H61.4578V46.1H50.2528V56.846C50.5228 56.63 50.8738 56.387 51.2788 56.117C51.6568 55.874 52.0888 55.658 52.5208 55.442C52.9528 55.253 53.4388 55.091 53.9248 54.956C54.4108 54.821 54.9238 54.74 55.4368 54.74C55.9768 54.74 56.5168 54.848 57.0298 55.01C57.5158 55.199 57.9748 55.469 58.3528 55.82C58.7308 56.171 59.0278 56.603 59.2438 57.116C59.4598 57.656 59.5948 58.25 59.5948 58.952C59.5948 59.654 59.4598 60.275 59.2438 60.815C59.0278 61.355 58.7308 61.787 58.3528 62.138C57.9748 62.516 57.5158 62.786 57.0298 62.948C56.5168 63.137 56.0038 63.218 55.4638 63.218C54.9238 63.218 54.4108 63.137 53.9788 62.975C53.5468 62.813 53.1418 62.597 52.7908 62.327C52.4398 62.057 52.1428 61.733 51.8998 61.355C51.6298 60.977 51.4408 60.599 51.2788 60.194L49.3078 61.247C49.5238 61.787 49.7938 62.273 50.1718 62.759C50.5228 63.245 50.9548 63.677 51.4678 64.055C51.9808 64.433 52.5748 64.757 53.2228 64.973C53.8708 65.216 54.6268 65.324 55.4368 65.324C56.2468 65.324 57.0298 65.216 57.8128 64.946C58.5688 64.676 59.2708 64.298 59.8648 63.758C60.4588 63.218 60.9448 62.57 61.3228 61.76C61.6738 60.95 61.8628 60.005 61.8628 58.898ZM77.2851 63.866C76.9071 63.866 76.5561 63.812 76.2321 63.65C75.9081 63.515 75.6111 63.326 75.3681 63.056C75.1251 62.813 74.9361 62.516 74.8011 62.192C74.6661 61.868 74.6121 61.517 74.6121 61.139C74.6121 60.761 74.6661 60.41 74.8011 60.086C74.9361 59.762 75.1251 59.492 75.3681 59.222C75.6111 58.979 75.9081 58.79 76.2321 58.628C76.5561 58.493 76.9071 58.412 77.2851 58.412C77.6631 58.412 78.0141 58.493 78.3381 58.628C78.6621 58.79 78.9321 58.979 79.1751 59.222C79.4181 59.492 79.6071 59.762 79.7421 60.086C79.8771 60.41 79.9581 60.761 79.9581 61.139C79.9581 61.517 79.8771 61.868 79.7421 62.192C79.6071 62.516 79.4181 62.813 79.1751 63.056C78.9321 63.326 78.6621 63.515 78.3381 63.65C78.0141 63.812 77.6631 63.866 77.2851 63.866ZM77.2851 56.954C76.6911 56.954 76.1241 57.062 75.6111 57.278C75.0981 57.494 74.6661 57.791 74.2881 58.169C73.9101 58.547 73.5861 59.006 73.3701 59.492C73.1541 60.005 73.0461 60.545 73.0461 61.139C73.0461 61.733 73.1541 62.3 73.3701 62.786C73.5861 63.299 73.9101 63.731 74.2881 64.109C74.6661 64.487 75.0981 64.784 75.6111 65C76.1241 65.216 76.6911 65.324 77.2851 65.324C77.8791 65.324 78.4191 65.216 78.9321 65C79.4451 64.784 79.9041 64.487 80.2821 64.109C80.6601 63.731 80.9571 63.299 81.1731 62.786C81.3891 62.3 81.5241 61.733 81.5241 61.139C81.5241 60.545 81.3891 60.005 81.1731 59.492C80.9571 59.006 80.6601 58.547 80.2821 58.169C79.9041 57.791 79.4451 57.494 78.9321 57.278C78.4191 57.062 77.8791 56.954 77.2851 56.954ZM78.2031 45.56L65.7561 64.703L66.9711 65.54L79.3641 46.343L78.2031 45.56ZM68.2671 52.688C67.8891 52.688 67.5381 52.634 67.2141 52.472C66.8901 52.337 66.5931 52.148 66.3501 51.878C66.1071 51.635 65.9181 51.338 65.7831 51.014C65.6481 50.69 65.5941 50.339 65.5941 49.961C65.5941 49.583 65.6481 49.232 65.7831 48.908C65.9181 48.584 66.1071 48.314 66.3501 48.044C66.5931 47.801 66.8901 47.612 67.2141 47.45C67.5381 47.315 67.8891 47.234 68.2671 47.234C68.6451 47.234 68.9961 47.315 69.3201 47.45C69.6441 47.612 69.9141 47.801 70.1571 48.044C70.4001 48.314 70.5891 48.584 70.7241 48.908C70.8591 49.232 70.9401 49.583 70.9401 49.961C70.9401 50.339 70.8591 50.69 70.7241 51.014C70.5891 51.338 70.4001 51.635 70.1571 51.878C69.9141 52.148 69.6441 52.337 69.3201 52.472C68.9961 52.634 68.6451 52.688 68.2671 52.688ZM68.2671 45.776C67.6731 45.776 67.1061 45.884 66.5931 46.1C66.0801 46.316 65.6481 46.613 65.2701 46.991C64.8921 47.369 64.5681 47.828 64.3521 48.314C64.1361 48.827 64.0281 49.367 64.0281 49.961C64.0281 50.555 64.1361 51.122 64.3521 51.608C64.5681 52.121 64.8921 52.553 65.2701 52.931C65.6481 53.309 66.0801 53.606 66.5931 53.822C67.1061 54.038 67.6731 54.146 68.2671 54.146C68.8611 54.146 69.4011 54.038 69.9141 53.822C70.4271 53.606 70.8861 53.309 71.2641 52.931C71.6421 52.553 71.9391 52.121 72.1551 51.608C72.3711 51.122 72.5061 50.555 72.5061 49.961C72.5061 49.367 72.3711 48.827 72.1551 48.314C71.9391 47.828 71.6421 47.369 71.2641 46.991C70.8861 46.613 70.4271 46.316 69.9141 46.1C69.4011 45.884 68.8611 45.776 68.2671 45.776Z" fill="#0DAA41"/>
<path d="M96.0662 33.6554C98.8036 39.1139 100.439 45.0582 100.879 51.1488C101.319 57.2394 100.555 63.357 98.6311 69.1524C96.707 74.9478 93.6601 80.3074 89.6646 84.9253C85.6691 89.5432 80.8032 93.3289 75.3446 96.0662C69.8861 98.8036 63.9418 100.439 57.8512 100.879C51.7606 101.319 45.643 100.555 39.8476 98.6311C34.0522 96.707 28.6926 93.6601 24.0747 89.6646C19.4568 85.6691 15.6711 80.8032 12.9338 75.3446C10.1964 69.8861 8.56101 63.9418 8.12092 57.8512C7.68083 51.7606 8.44468 45.643 10.3689 39.8476C12.293 34.0522 15.3399 28.6926 19.3354 24.0747C23.3309 19.4568 28.1968 15.6711 33.6554 12.9338C39.1139 10.1964 45.0582 8.56101 51.1488 8.12092C57.2394 7.68083 63.357 8.44468 69.1524 10.3689C74.9478 12.293 80.3074 15.3399 84.9253 19.3354C89.5432 23.3309 93.3289 28.1968 96.0662 33.6554L96.0662 33.6554Z" stroke="#D3E0D7" stroke-width="16"/>
<mask id="path-3-inside-1_428_8865" fill="white">
<path d="M54.5 0C68.2141 1.63539e-07 81.4241 5.17029 91.4947 14.4794C101.565 23.7886 107.756 36.5522 108.832 50.224C109.908 63.8958 105.79 77.4708 97.2997 88.2407C88.8094 99.0106 76.5709 106.184 63.0256 108.329C49.4804 110.474 35.6242 107.434 24.2214 99.815C12.8185 92.1959 4.70728 80.5579 1.50582 67.2227C-1.69565 53.8875 0.248 39.8355 6.94902 27.87C13.65 15.9046 24.6158 6.90524 37.6587 2.66738L42.6397 17.9973C33.4543 20.9818 25.7318 27.3195 21.0126 35.7461C16.2935 44.1727 14.9247 54.0686 17.1793 63.4598C19.4339 72.851 25.1462 81.047 33.1765 86.4127C41.2069 91.7785 50.965 93.9195 60.5041 92.4086C70.0432 90.8978 78.6621 85.8462 84.6414 78.2616C90.6206 70.677 93.5206 61.1169 92.7629 51.4887C92.0051 41.8604 87.6453 32.8717 80.5532 26.3159C73.4611 19.76 64.158 16.1188 54.5 16.1188V0Z"/>
</mask>
<path d="M54.5 0C68.2141 1.63539e-07 81.4241 5.17029 91.4947 14.4794C101.565 23.7886 107.756 36.5522 108.832 50.224C109.908 63.8958 105.79 77.4708 97.2997 88.2407C88.8094 99.0106 76.5709 106.184 63.0256 108.329C49.4804 110.474 35.6242 107.434 24.2214 99.815C12.8185 92.1959 4.70728 80.5579 1.50582 67.2227C-1.69565 53.8875 0.248 39.8355 6.94902 27.87C13.65 15.9046 24.6158 6.90524 37.6587 2.66738L42.6397 17.9973C33.4543 20.9818 25.7318 27.3195 21.0126 35.7461C16.2935 44.1727 14.9247 54.0686 17.1793 63.4598C19.4339 72.851 25.1462 81.047 33.1765 86.4127C41.2069 91.7785 50.965 93.9195 60.5041 92.4086C70.0432 90.8978 78.6621 85.8462 84.6414 78.2616C90.6206 70.677 93.5206 61.1169 92.7629 51.4887C92.0051 41.8604 87.6453 32.8717 80.5532 26.3159C73.4611 19.76 64.158 16.1188 54.5 16.1188V0Z" fill="white"/>
<path d="M54.5 0C68.2141 1.63539e-07 81.4241 5.17029 91.4947 14.4794C101.565 23.7886 107.756 36.5522 108.832 50.224C109.908 63.8958 105.79 77.4708 97.2997 88.2407C88.8094 99.0106 76.5709 106.184 63.0256 108.329C49.4804 110.474 35.6242 107.434 24.2214 99.815C12.8185 92.1959 4.70728 80.5579 1.50582 67.2227C-1.69565 53.8875 0.248 39.8355 6.94902 27.87C13.65 15.9046 24.6158 6.90524 37.6587 2.66738L42.6397 17.9973C33.4543 20.9818 25.7318 27.3195 21.0126 35.7461C16.2935 44.1727 14.9247 54.0686 17.1793 63.4598C19.4339 72.851 25.1462 81.047 33.1765 86.4127C41.2069 91.7785 50.965 93.9195 60.5041 92.4086C70.0432 90.8978 78.6621 85.8462 84.6414 78.2616C90.6206 70.677 93.5206 61.1169 92.7629 51.4887C92.0051 41.8604 87.6453 32.8717 80.5532 26.3159C73.4611 19.76 64.158 16.1188 54.5 16.1188V0Z" stroke="#0DAA41" stroke-width="32" mask="url(#path-3-inside-1_428_8865)"/>
<path d="M54.5 0C68.2141 1.63539e-07 81.4241 5.17029 91.4947 14.4794C101.565 23.7886 107.756 36.5522 108.832 50.224C109.908 63.8958 105.79 77.4708 97.2997 88.2407C88.8094 99.0106 76.5709 106.184 63.0256 108.329C49.4804 110.474 35.6242 107.434 24.2214 99.815C12.8185 92.1959 4.70728 80.5579 1.50582 67.2227C-1.69565 53.8875 0.248 39.8355 6.94902 27.87C13.65 15.9046 24.6158 6.90524 37.6587 2.66738L42.6397 17.9973C33.4543 20.9818 25.7318 27.3195 21.0126 35.7461C16.2935 44.1727 14.9247 54.0686 17.1793 63.4598C19.4339 72.851 25.1462 81.047 33.1765 86.4127C41.2069 91.7785 50.965 93.9195 60.5041 92.4086C70.0432 90.8978 78.6621 85.8462 84.6414 78.2616C90.6206 70.677 93.5206 61.1169 92.7629 51.4887C92.0051 41.8604 87.6453 32.8717 80.5532 26.3159C73.4611 19.76 64.158 16.1188 54.5 16.1188V0Z" stroke="#0DAA41" stroke-width="32" mask="url(#path-3-inside-1_428_8865)"/>
</svg>

<svg width="109" height="109" fill="none" xmlns="http://www.w3.org/2000/svg"><path d="M40.263 56.09a3.945 3.945 0 0 1-1.62-.324c-.486-.216-.918-.486-1.242-.864a4.49 4.49 0 0 1-.783-1.296c-.189-.486-.27-.999-.27-1.566 0-.54.081-1.08.27-1.593a4.02 4.02 0 0 1 .756-1.323c.324-.378.756-.675 1.242-.891a3.988 3.988 0 0 1 3.267 0c.486.216.891.513 1.242.891.324.378.594.837.783 1.323a5.33 5.33 0 0 1 .27 1.593c0 .567-.108 1.08-.297 1.566a4.49 4.49 0 0 1-.783 1.296c-.324.378-.729.648-1.215.864a3.945 3.945 0 0 1-1.62.324Zm1.377 1.782-4.077 6.507 1.836 1.188 2.133-3.537 1.917-3.24 1.485-2.484.756-1.323c.216-.405.378-.864.54-1.377a6.392 6.392 0 0 0 .216-1.647c0-.756-.135-1.485-.405-2.241a6 6 0 0 0-1.215-1.971c-.54-.594-1.188-1.053-1.944-1.431-.756-.351-1.647-.54-2.619-.54-.999 0-1.89.189-2.646.54-.756.378-1.404.837-1.944 1.431-.54.594-.918 1.269-1.188 2.025a6.705 6.705 0 0 0-.405 2.268c0 .783.135 1.539.405 2.268.27.756.675 1.404 1.215 1.971a5.497 5.497 0 0 0 1.89 1.404c.756.351 1.593.513 2.565.513.459 0 .783-.027.999-.108.216-.054.378-.135.486-.216Zm20.223 1.026a7.36 7.36 0 0 0-.513-2.754 6.023 6.023 0 0 0-1.323-1.971 5.914 5.914 0 0 0-1.944-1.161 6.441 6.441 0 0 0-2.241-.405 8.44 8.44 0 0 0-1.782.216 6.94 6.94 0 0 0-1.647.567v-5.184h9.045V46.1H50.253v10.746c.27-.216.62-.459 1.026-.729.378-.243.81-.459 1.242-.675.432-.189.918-.351 1.404-.486a5.683 5.683 0 0 1 1.512-.216c.54 0 1.08.108 1.593.27a4.16 4.16 0 0 1 1.323.81 3.7 3.7 0 0 1 .89 1.296c.217.54.352 1.134.352 1.836a4.98 4.98 0 0 1-.351 1.863c-.216.54-.513.972-.891 1.323a3.379 3.379 0 0 1-1.323.81 4.447 4.447 0 0 1-1.566.27c-.54 0-1.053-.081-1.485-.243a4.594 4.594 0 0 1-1.188-.648 3.827 3.827 0 0 1-.891-.972 5.371 5.371 0 0 1-.621-1.161l-1.971 1.053c.216.54.486 1.026.864 1.512a5.9 5.9 0 0 0 1.296 1.296 6.38 6.38 0 0 0 1.755.918c.648.243 1.404.351 2.214.351s1.593-.108 2.376-.378c.756-.27 1.458-.648 2.052-1.188a6.17 6.17 0 0 0 1.458-1.998c.35-.81.54-1.755.54-2.862Zm15.422 4.968c-.378 0-.729-.054-1.053-.216a2.361 2.361 0 0 1-.864-.594 2.667 2.667 0 0 1-.567-.864 2.704 2.704 0 0 1-.189-1.053c0-.378.054-.729.19-1.053a2.99 2.99 0 0 1 .566-.864c.243-.243.54-.432.864-.594a2.718 2.718 0 0 1 1.053-.216c.378 0 .73.081 1.053.216.324.162.594.351.837.594.243.27.432.54.567.864.135.324.216.675.216 1.053 0 .378-.08.729-.216 1.053a2.667 2.667 0 0 1-.567.864c-.243.27-.513.459-.837.594-.324.162-.675.216-1.053.216Zm0-6.912c-.594 0-1.16.108-1.674.324a4.082 4.082 0 0 0-1.323.891 4.477 4.477 0 0 0-.918 1.323 4.169 4.169 0 0 0-.324 1.647c0 .594.108 1.161.324 1.647.216.513.54.945.918 1.323s.81.675 1.323.891c.513.216 1.08.324 1.674.324.594 0 1.134-.108 1.647-.324a4.082 4.082 0 0 0 2.241-2.214 4.085 4.085 0 0 0 .351-1.647c0-.594-.135-1.134-.35-1.647a4.392 4.392 0 0 0-.892-1.323 4.2 4.2 0 0 0-1.35-.891 4.169 4.169 0 0 0-1.647-.324Zm.918-11.394L65.756 64.703l1.215.837 12.393-19.197-1.16-.783Zm-9.936 7.128c-.378 0-.729-.054-1.053-.216a2.361 2.361 0 0 1-.864-.594 2.667 2.667 0 0 1-.567-.864 2.704 2.704 0 0 1-.189-1.053c0-.378.054-.729.19-1.053a2.99 2.99 0 0 1 .566-.864c.243-.243.54-.432.864-.594a2.718 2.718 0 0 1 1.053-.216c.378 0 .73.081 1.053.216.324.162.594.351.837.594.243.27.432.54.567.864.135.324.216.675.216 1.053 0 .378-.08.729-.216 1.053a2.667 2.667 0 0 1-.567.864c-.243.27-.513.459-.837.594-.324.162-.675.216-1.053.216Zm0-6.912c-.594 0-1.16.108-1.674.324a4.082 4.082 0 0 0-1.323.891 4.477 4.477 0 0 0-.918 1.323 4.169 4.169 0 0 0-.324 1.647c0 .594.108 1.161.324 1.647.216.513.54.945.918 1.323s.81.675 1.323.891c.513.216 1.08.324 1.674.324.594 0 1.134-.108 1.647-.324a4.082 4.082 0 0 0 2.241-2.214 4.085 4.085 0 0 0 .351-1.647c0-.594-.135-1.134-.35-1.647a4.392 4.392 0 0 0-.892-1.323 4.2 4.2 0 0 0-1.35-.891 4.169 4.169 0 0 0-1.647-.324Z" fill="#0DAA41"/><path d="M96.066 33.655a46.497 46.497 0 0 1-20.721 62.411 46.497 46.497 0 0 1-62.411-20.721 46.499 46.499 0 1 1 83.132-41.69Z" stroke="#D3E0D7" stroke-width="16"/><mask id="a" fill="#fff"><path d="M54.5 0a54.5 54.5 0 1 1-16.841 2.667l4.98 15.33A38.381 38.381 0 1 0 54.5 16.12V0Z"/></mask><path d="M54.5 0a54.5 54.5 0 1 1-16.841 2.667l4.98 15.33A38.381 38.381 0 1 0 54.5 16.12V0Z" fill="#fff"/><path d="M54.5 0a54.5 54.5 0 1 1-16.841 2.667l4.98 15.33A38.381 38.381 0 1 0 54.5 16.12V0Z" stroke="#0DAA41" stroke-width="32" mask="url(#a)"/><path d="M54.5 0a54.5 54.5 0 1 1-16.841 2.667l4.98 15.33A38.381 38.381 0 1 0 54.5 16.12V0Z" stroke="#0DAA41" stroke-width="32" mask="url(#a)"/></svg>
